X: 114
T:Swinging on a Gate
M:4/4
L:1/8
Q:160
C:Tadtional
S:Transcribed from Jay Ungar's "Farmer Set" version by S.C.
R:Reel
K:G
e(f|:"G"ge)dB G2 AB|"Am"c-ABG A(GEG)|"G"DGB-d g2g2|"D"fga-g fde-f|!
"G"ged-B G2 AB|"Am"c-ABG A(GEG)|c-ABG A(GEG)|"D"DG(GF"G"G2) e(f:|"G"gf)g
(a ba)g(f|!
"Em"gf)ed e(dcB)|"Am"E2 (AB cB)AG|EGAB "D"cde(f|"G"gf)g(a ba)g(f|!
"Em"gf)ed e(dcB)|"C"cABG "Am"A(GEG)|[1"D"DG(GF "G"G2) ef||[2"D"DG(GF G2)
 G2|]
